!!!OTL: Captain Glen
!!!ONM: 55.
**kern
*clefG2
*k[b-e-a-]
*E-:
!Referent unclear -- Conklin/Pearce 
*M3/4
*MM80
{4B-
=1
8e-
8e-
4.g
16f
16e-
=2
8c
8c
4.B-}
{8B-
=3
8e-
8g
4.b-
16b-
16b-
=4
8a-
8g
4.f}
{(16e-
16c)
=5
8B-
16B-
16B-
4.b-
8g
=6
8a-
8g
4.f}
{8f
=7
8g
8g
4.e-
8c
=8
8B-
8B-
2B-}
==
*-
!!!CNT: Folksongs of Maritime Canada
!!!MRD: 1928///-1932///
!!!OCL: Helen Creighton
!!!YOR: Songs and Ballads from Nova Scotia
!!!PPR: J.M. Dent & Sons, Limited
!!!PPP: Toronto, Canada
!!!PDT: 1932///
!!!reprint: Dover Publications, 1992: ISBN 0-486-21703-5
!!!ENC1: Craig Stuart Sapp (music and bibliographic data)                       
!!!ENC2: Marcus Pearce (phrase markings and key designations)                   
!!!ENC3: Darrell Conklin (phrase markings and key designations)   
!!!END: 2002/04/10/
!!!EEV: 2004/06/05
!!!MPN: Mr. Ben Henneberry
!!!PPG: 111
!!!EFL: 56/152
!!!ARE: Canada; Nova Scotia
!!!verses: 12
!!!VTS: 1841556776
